**harm	**harte	**silbe	**rhyme	**timestamp	**phrase	**leadinstrument	**kern
*M4/4	*M4/4	*	*	*	*	*	*
*	*	*	*	*	*	*	*
*	*	*	*	*	*	*	*
*D:	*D:	*	*	*	*	*	*D:
*	*	*	*	*	*	*	*
*	*	*	*	*	*	*	*
1r;	N	.	.	0	.	r	1r;
=1	=1	=1	=1	=1	=1	=1	=1
*>Letter>A	*>Letter>A	*>Letter>A	*>Letter>A	*>Letter>A	*>Letter>A	*>Letter>A	*>Letter>A
*>Label>Intro	*>Label>Intro	*>Label>Intro	*>Label>Intro	*>Label>Intro	*>Label>Intro	*>Label>Intro	*>Label>Intro
1I	D:maj	.	.	0.07	newline	guitar	1D 1f# 1a
=2	=2	=2	=2	=2	=2	=2	=2
1Im7b	D:7/3	.	.	2.105	.	guitar	1d 1F# 1a 1cc#
=3	=3	=3	=3	=3	=3	=3	=3
1IV	G:maj	.	.	4.14	.	guitar	1G 1b 1dd
=4	=4	=4	=4	=4	=4	=4	=4
1V	A:maj	.	.	6.175	.	guitar	1A 1cc# 1ee
=5	=5	=5	=5	=5	=5	=5	=5
1I	D:maj	.	.	8.209	newline	guitar	1D 1f# 1a
=6	=6	=6	=6	=6	=6	=6	=6
1Im7b	D:7/3	.	.	10.116	.	guitar	1d 1F# 1a 1cc#
=7	=7	=7	=7	=7	=7	=7	=7
1IV	G:maj	.	.	12.023	.	guitar	1G 1b 1dd
=8	=8	=8	=8	=8	=8	=8	=8
1V	A:maj	.	.	13.929	.	guitar	1A 1cc# 1ee
=9	=9	=9	=9	=9	=9	=9	=9
*>Letter>A	*>Letter>A	*>Letter>A	*>Letter>A	*>Letter>A	*>Letter>A	*>Letter>A	*>Letter>A
*>Label>Verse	*>Label>Verse	*>Label>Verse	*>Label>Verse	*>Label>Verse	*>Label>Verse	*>Label>Verse	*>Label>Verse
1I	D:maj	.	.	15.836	newline	voice	1D 1f# 1a
=10	=10	=10	=10	=10	=10	=10	=10
1Ib	D:maj/3	.	.	17.742	.	voice	1d 1F# 1a
=11	=11	=11	=11	=11	=11	=11	=11
1IV	G:maj	.	.	19.649	.	voice	1G 1b 1dd
=12	=12	=12	=12	=12	=12	=12	=12
1V	A:maj	.	.	21.555	.	voice	1A 1cc# 1ee
=13	=13	=13	=13	=13	=13	=13	=13
1I	D:maj	.	.	23.462	newline	voice	1D 1f# 1a
=14	=14	=14	=14	=14	=14	=14	=14
1Ib	D:maj/3	.	.	25.329	.	voice	1d 1F# 1a
=15	=15	=15	=15	=15	=15	=15	=15
1IV	G:maj	.	.	27.196	.	voice	1G 1b 1dd
=16	=16	=16	=16	=16	=16	=16	=16
1V	A:maj	.	.	29.063	.	voice	1A 1cc# 1ee
.	.	Here's	.	.	.	.	.
=17	=17	=17	=17	=17	=17	=17	=17
*>Letter>B	*>Letter>B	*>Letter>B	*>Letter>B	*>Letter>B	*>Letter>B	*>Letter>B	*>Letter>B
*>Label>Prechorus	*>Label>Prechorus	*>Label>Prechorus	*>Label>Prechorus	*>Label>Prechorus	*>Label>Prechorus	*>Label>Prechorus	*>Label>Prechorus
1I	D:maj	wish-	.	30.929	newline	voice	1D 1f# 1a
.	.	-ing	.	.	.	.	.
.	.	you	.	.	.	.	.
.	.	the	.	.	.	.	.
.	.	blu-	.	.	.	.	.
=18	=18	=18	=18	=18	=18	=18	=18
1III7	F#:7	_	.	32.827	.	voice	1F# 1a# 1cc# 1ee
.	.	-est	.	.	.	.	.
.	.	sky	A	.	.	.	.
.	.	.	.	.	.	.	.
.	.	and	.	.	.	.	.
=19	=19	=19	=19	=19	=19	=19	=19
1IV	G:maj	_	.	34.724	.	voice	1G 1b 1dd
.	.	ho-	.	.	.	.	.
.	.	-ping	.	.	.	.	.
.	.	some-	.	.	.	.	.
.	.	-thing	.	.	.	.	.
=20	=20	=20	=20	=20	=20	=20	=20
1V	A:maj	bet-	.	36.621	.	voice	1A 1cc# 1ee
.	.	-ter	.	.	.	.	.
.	.	comes	.	.	.	.	.
.	.	to-	.	.	.	.	.
.	.	-mor-	.	.	.	.	.
=21	=21	=21	=21	=21	=21	=21	=21
1I	D:maj	_	.	38.519	newline	voice	1D 1f# 1a
.	.	-ow	.	.	.	.	.
.	.	.	.	.	.	.	.
.	.	Ho-	.	.	.	.	.
.	.	-ping	.	.	.	.	.
.	.	all	.	.	.	.	.
.	.	the	.	.	.	.	.
=22	=22	=22	=22	=22	=22	=22	=22
1III7	F#:7	ver-	.	40.401	.	voice	1F# 1a# 1cc# 1ee
.	.	-ses	.	.	.	.	.
.	.	rhyme	A	.	.	.	.
.	.	.	.	.	.	.	.
.	.	.	.	.	.	.	.
.	.	and	.	.	.	.	.
.	.	the	.	.	.	.	.
=23	=23	=23	=23	=23	=23	=23	=23
1IV	G:maj	ver-	.	42.283	.	voice	1G 1b 1dd
.	.	-y	.	.	.	.	.
.	.	best	.	.	.	.	.
.	.	of	.	.	.	.	.
.	.	chor-	.	.	.	.	.
=24	=24	=24	=24	=24	=24	=24	=24
1V	A:maj	_	.	44.165	.	voice	1A 1cc# 1ee
.	.	-us-	.	.	.	.	.
.	.	-es	.	.	.	.	.
.	.	to	.	.	.	.	.
.	.	.	.	.	.	.	.
=25	=25	=25	=25	=25	=25	=25	=25
1vi	B:min	.	.	46.048	newline	voice	1B 1dd 1ff#
.	.	fol-	.	.	.	.	.
.	.	-low	.	.	.	.	.
.	.	all	.	.	.	.	.
.	.	the	.	.	.	.	.
.	.	doubt	.	.	.	.	.
=26	=26	=26	=26	=26	=26	=26	=26
1vid	B:min(11)/7	_	.	47.968	.	voice	1b 1dd 1ff#
.	.	and	.	.	.	.	.
.	.	sad-	.	.	.	.	.
.	.	-ness	.	.	.	.	.
.	.	.	.	.	.	.	.
=27	=27	=27	=27	=27	=27	=27	=27
1vid	B:min/b7	I	.	49.889	.	voice	1b 1dd 1ff#
.	.	know	.	.	.	.	.
.	.	that	.	.	.	.	.
.	.	bet-	.	.	.	.	.
.	.	-ter	.	.	.	.	.
.	.	things	.	.	.	.	.
=28	=28	=28	=28	=28	=28	=28	=28
1II7	E:7	_	.	51.81	.	voice	1E 1g# 1b 1dd
.	.	are	.	.	.	.	.
.	.	on	.	.	.	.	.
.	.	the	.	.	.	.	.
.	.	way	B	.	.	.	.
=29	=29	=29	=29	=29	=29	=29	=29
1V	A:maj	_	.	53.731	newline	voice	1A 1cc# 1ee
.	.	.	.	.	.	.	.
.	.	.	.	.	.	.	.
=30	=30	=30	=30	=30	=30	=30	=30
1IV	G:maj	.	.	55.581	.	voice	1G 1b 1dd
.	.	.	.	.	.	.	.
.	.	Here's	.	.	.	.	.
=31	=31	=31	=31	=31	=31	=31	=31
*>Letter>B	*>Letter>B	*>Letter>B	*>Letter>B	*>Letter>B	*>Letter>B	*>Letter>B	*>Letter>B
*>Label>Prechorus	*>Label>Prechorus	*>Label>Prechorus	*>Label>Prechorus	*>Label>Prechorus	*>Label>Prechorus	*>Label>Prechorus	*>Label>Prechorus
1I	D:maj	ho-	.	57.432	newline	voice	1D 1f# 1a
.	.	-ping	.	.	.	.	.
.	.	all	.	.	.	.	.
.	.	the	.	.	.	.	.
.	.	days	B	.	.	.	.
=32	=32	=32	=32	=32	=32	=32	=32
1III7	F#:7	_	.	59.342	.	voice	1F# 1a# 1cc# 1ee
.	.	a-	.	.	.	.	.
.	.	-head	C	.	.	.	.
.	.	.	.	.	.	.	.
.	.	won't	.	.	.	.	.
=33	=33	=33	=33	=33	=33	=33	=33
1IV	G:maj	_	.	61.251	.	voice	1G 1b 1dd
.	.	be	.	.	.	.	.
.	.	as	.	.	.	.	.
.	.	bit-	.	.	.	.	.
.	.	-ter	.	.	.	.	.
.	.	as	.	.	.	.	.
=34	=34	=34	=34	=34	=34	=34	=34
1V	A:maj	_	.	63.16	.	voice	1A 1cc# 1ee
.	.	the	.	.	.	.	.
.	.	days	.	.	.	.	.
.	.	be-	.	.	.	.	.
.	.	-hind	A	.	.	.	.
=35	=35	=35	=35	=35	=35	=35	=35
1I	D:maj	_	.	65.07	newline	voice	1D 1f# 1a
.	.	you	.	.	.	.	.
.	.	.	.	.	.	.	.
.	.	Be	.	.	.	.	.
.	.	an	.	.	.	.	.
.	.	opt-	.	.	.	.	.
.	.	-i-	.	.	.	.	.
=36	=36	=36	=36	=36	=36	=36	=36
1III7	F#:7	-mist	D	66.975	.	voice	1F# 1a# 1cc# 1ee
.	.	in-	.	.	.	.	.
.	.	-stead	C	.	.	.	.
.	.	.	.	.	.	.	.
.	.	And	.	.	.	.	.
=37	=37	=37	=37	=37	=37	=37	=37
1IV	G:maj	_	.	68.879	.	voice	1G 1b 1dd
.	.	some-	.	.	.	.	.
.	.	-how	.	.	.	.	.
.	.	hap-	.	.	.	.	.
.	.	-pi-	.	.	.	.	.
.	.	-ness	D	.	.	.	.
=38	=38	=38	=38	=38	=38	=38	=38
1V	A:maj	_	.	70.784	.	voice	1A 1cc# 1ee
.	.	will	.	.	.	.	.
.	.	find	A	.	.	.	.
.	.	you	.	.	.	.	.
.	.	.	.	.	.	.	.
=39	=39	=39	=39	=39	=39	=39	=39
1vi	B:min	.	.	72.688	newline	voice	1B 1dd 1ff#
.	.	For-	.	.	.	.	.
.	.	-get	.	.	.	.	.
.	.	what	.	.	.	.	.
.	.	hap-	.	.	.	.	.
.	.	-pened	.	.	.	.	.
=40	=40	=40	=40	=40	=40	=40	=40
1vid	B:min(11)/7	yes-	D	74.595	.	voice	1b 1dd 1ff#
.	.	-ter-	.	.	.	.	.
.	.	--day	B	.	.	.	.
.	.	.	.	.	.	.	.
.	.	I	.	.	.	.	.
=41	=41	=41	=41	=41	=41	=41	=41
1vid	B:min/b7	know	.	76.502	.	voice	1b 1dd 1ff#
.	.	that	.	.	.	.	.
.	.	bet-	.	.	.	.	.
.	.	-ter	.	.	.	.	.
.	.	things	.	.	.	.	.
=42	=42	=42	=42	=42	=42	=42	=42
1II7	E:7	_	.	78.41	.	voice	1E 1g# 1b 1dd
.	.	are	.	.	.	.	.
.	.	on	.	.	.	.	.
.	.	the	.	.	.	.	.
.	.	way	B	.	.	.	.
=43	=43	=43	=43	=43	=43	=43	=43
1V	A:maj	_	.	80.317	newline	voice	1A 1cc# 1ee
.	.	.	.	.	.	.	.
.	.	.	.	.	.	.	.
=44	=44	=44	=44	=44	=44	=44	=44
1IV	G:maj	.	.	82.17	.	voice	1G 1b 1dd
.	.	It's	.	.	.	.	.
.	.	real-	.	.	.	.	.
.	.	-ly	.	.	.	.	.
.	.	good	.	.	.	.	.
.	.	to	.	.	.	.	.
.	.	see	.	.	.	.	.
.	.	you	.	.	.	.	.
=45	=45	=45	=45	=45	=45	=45	=45
*>Letter>C	*>Letter>C	*>Letter>C	*>Letter>C	*>Letter>C	*>Letter>C	*>Letter>C	*>Letter>C
*>Label>Chorus	*>Label>Chorus	*>Label>Chorus	*>Label>Chorus	*>Label>Chorus	*>Label>Chorus	*>Label>Chorus	*>Label>Chorus
1I	D:maj	rock-	.	84.024	newline	voice	1D 1f# 1a
.	.	-ing	.	.	.	.	.
.	.	out	.	.	.	.	.
.	.	and	.	.	.	.	.
.	.	ha-	.	.	.	.	.
=46	=46	=46	=46	=46	=46	=46	=46
2IV	G:maj	_	.	85.9	.	voice	2.G 2.b 2.dd
.	.	-ving	.	.	.	.	.
.	.	fun	E	.	.	.	.
2V	A:maj	.	.	86.838	.	voice	4A 4cc# 4ee
.	.	.	.	.	.	.	.
=47	=47	=47	=47	=47	=47	=47	=47
1I	D:maj	Li-	.	87.776	.	voice	1D 1f# 1a
.	.	-ving	.	.	.	.	.
.	.	like	.	.	.	.	.
.	.	you	.	.	.	.	.
.	.	just	.	.	.	.	.
=48	=48	=48	=48	=48	=48	=48	=48
2IV	G:maj	_	.	89.653	.	voice	2.G 2.b 2.dd
.	.	be-	.	.	.	.	.
.	.	-gun	E	.	.	.	.
2V	A:maj	.	.	90.591	.	voice	4A 4cc# 4ee
.	.	.	.	.	.	.	.
.	.	Ac-	.	.	.	.	.
=49	=49	=49	=49	=49	=49	=49	=49
1I	D:maj	-cept	.	91.529	newline	voice	1D 1f# 1a
.	.	your	.	.	.	.	.
.	.	life	.	.	.	.	.
.	.	and	.	.	.	.	.
.	.	what	.	.	.	.	.
=50	=50	=50	=50	=50	=50	=50	=50
2IV	G:maj	_	.	93.379	.	voice	2.G 2.b 2.dd
.	.	it	.	.	.	.	.
.	.	brings	F	.	.	.	.
2V	A:maj	.	.	94.305	.	voice	4A 4cc# 4ee
.	.	.	.	.	.	.	.
.	.	I	.	.	.	.	.
=51	=51	=51	=51	=51	=51	=51	=51
1I	D:maj	hope	.	95.23	.	voice	1D 1f# 1a
.	.	to-	.	.	.	.	.
.	.	-mor-	.	.	.	.	.
.	.	-row	.	.	.	.	.
.	.	you'll	.	.	.	.	.
=52	=52	=52	=52	=52	=52	=52	=52
2IV	G:maj	_	.	97.08	.	voice	3...G 3...b 3...dd
.	.	find	.	.	.	.	.
2V	A:maj	.	.	98.006	.	voice	4.A 4.cc# 4.ee
.	.	bet-	.	.	.	.	.
.	.	-ter	.	.	.	.	.
=53	=53	=53	=53	=53	=53	=53	=53
*>Letter>A	*>Letter>A	*>Letter>A	*>Letter>A	*>Letter>A	*>Letter>A	*>Letter>A	*>Letter>A
*>Label>Trans	*>Label>Trans	*>Label>Trans	*>Label>Trans	*>Label>Trans	*>Label>Trans	*>Label>Trans	*>Label>Trans
1I	D:maj	things	F	98.931	newline	guitar	1D 1f# 1a
.	.	.	.	.	.	.	.
=54	=54	=54	=54	=54	=54	=54	=54
1Ib	D:maj/3	.	.	100.822	.	guitar	1d 1F# 1a
.	.	.	.	.	.	.	.
.	.	I	.	.	.	.	.
=55	=55	=55	=55	=55	=55	=55	=55
1IV	G:maj	know	.	102.714	.	guitar	1G 1b 1dd
.	.	to-	.	.	.	.	.
.	.	-mor-	.	.	.	.	.
.	.	-row	.	.	.	.	.
.	.	you'll	.	.	.	.	.
=56	=56	=56	=56	=56	=56	=56	=56
1V	A:maj	_	.	104.606	.	guitar	1A 1cc# 1ee
.	.	find	.	.	.	.	.
.	.	_	.	.	.	.	.
.	.	bet-	.	.	.	.	.
.	.	-ter	.	.	.	.	.
=57	=57	=57	=57	=57	=57	=57	=57
1I	D:maj	things	F	106.497	newline	guitar	1D 1f# 1a
.	.	.	.	.	.	.	.
=58	=58	=58	=58	=58	=58	=58	=58
1Ib	D:maj/3	.	.	108.362	.	guitar	1d 1F# 1a
=59	=59	=59	=59	=59	=59	=59	=59
1IV	G:maj	.	.	110.227	.	guitar	1G 1b 1dd
=60	=60	=60	=60	=60	=60	=60	=60
1V	A:maj	.	.	112.091	.	guitar	1A 1cc# 1ee
.	.	.	.	.	.	.	.
.	.	Here's	.	.	.	.	.
=61	=61	=61	=61	=61	=61	=61	=61
*>Letter>B	*>Letter>B	*>Letter>B	*>Letter>B	*>Letter>B	*>Letter>B	*>Letter>B	*>Letter>B
*>Label>Prechorus	*>Label>Prechorus	*>Label>Prechorus	*>Label>Prechorus	*>Label>Prechorus	*>Label>Prechorus	*>Label>Prechorus	*>Label>Prechorus
1I	D:maj	wish-	.	113.956	newline	voice	1D 1f# 1a
.	.	-ing	.	.	.	.	.
.	.	you	.	.	.	.	.
.	.	the	.	.	.	.	.
.	.	blu-	.	.	.	.	.
=62	=62	=62	=62	=62	=62	=62	=62
1III7	F#:7	_	.	115.854	.	voice	1F# 1a# 1cc# 1ee
.	.	-est	d	.	.	.	.
.	.	sky	A	.	.	.	.
.	.	.	.	.	.	.	.
.	.	.	.	.	.	.	.
.	.	And	.	.	.	.	.
=63	=63	=63	=63	=63	=63	=63	=63
1IV	G:maj	_	.	117.751	.	voice	1G 1b 1dd
.	.	ho-	.	.	.	.	.
.	.	-ping	.	.	.	.	.
.	.	some-	.	.	.	.	.
.	.	-thing	.	.	.	.	.
=64	=64	=64	=64	=64	=64	=64	=64
1V	A:maj	bet-	.	119.649	.	voice	1A 1cc# 1ee
.	.	-ter	.	.	.	.	.
.	.	comes	.	.	.	.	.
.	.	to-	.	.	.	.	.
.	.	-mor-	.	.	.	.	.
=65	=65	=65	=65	=65	=65	=65	=65
1I	D:maj	_	.	121.547	newline	voice	1D 1f# 1a
.	.	-ow	.	.	.	.	.
.	.	.	.	.	.	.	.
.	.	Ho-	.	.	.	.	.
.	.	-ping	.	.	.	.	.
.	.	all	.	.	.	.	.
.	.	the	.	.	.	.	.
=66	=66	=66	=66	=66	=66	=66	=66
1III7	F#:7	ver-	.	123.428	.	voice	1F# 1a# 1cc# 1ee
.	.	-ses	d	.	.	.	.
.	.	rhyme	A	.	.	.	.
.	.	.	.	.	.	.	.
.	.	and	.	.	.	.	.
=67	=67	=67	=67	=67	=67	=67	=67
1IV	G:maj	_	.	125.309	.	voice	1G 1b 1dd
.	.	the	.	.	.	.	.
.	.	ver-	.	.	.	.	.
.	.	-y	.	.	.	.	.
.	.	best	.	.	.	.	.
.	.	of	.	.	.	.	.
=68	=68	=68	=68	=68	=68	=68	=68
1V	A:maj	chor-	.	127.19	.	voice	1A 1cc# 1ee
.	.	-us-	.	.	.	.	.
.	.	-es	d	.	.	.	.
.	.	to	.	.	.	.	.
.	.	.	.	.	.	.	.
=69	=69	=69	=69	=69	=69	=69	=69
1vi	B:min	.	.	129.071	newline	voice	1B 1dd 1ff#
.	.	fol-	.	.	.	.	.
.	.	-low	.	.	.	.	.
.	.	all	.	.	.	.	.
.	.	the	.	.	.	.	.
.	.	doubt	.	.	.	.	.
=70	=70	=70	=70	=70	=70	=70	=70
1vid	B:min(11)/7	_	.	130.968	.	voice	1b 1dd 1ff#
.	.	and	.	.	.	.	.
.	.	sad-	.	.	.	.	.
.	.	-ness	D	.	.	.	.
.	.	.	.	.	.	.	.
=71	=71	=71	=71	=71	=71	=71	=71
1vid	B:min/b7	I	.	132.865	.	voice	1b 1dd 1ff#
.	.	know	.	.	.	.	.
.	.	that	.	.	.	.	.
.	.	bet-	.	.	.	.	.
.	.	-ter	.	.	.	.	.
.	.	things	.	.	.	.	.
=72	=72	=72	=72	=72	=72	=72	=72
1II7	E:7	_	.	134.762	.	voice	1E 1g# 1b 1dd
.	.	are	.	.	.	.	.
.	.	on	.	.	.	.	.
.	.	the	.	.	.	.	.
.	.	way	.	.	.	.	.
=73	=73	=73	=73	=73	=73	=73	=73
1V	A:maj	_	.	136.659	newline	voice	1A 1cc# 1ee
.	.	.	.	.	.	.	.
.	.	.	.	.	.	.	.
=74	=74	=74	=74	=74	=74	=74	=74
1IV	G:maj	.	.	138.502	.	voice	1G 1b 1dd
.	.	I	.	.	.	.	.
.	.	know	.	.	.	.	.
.	.	you've	.	.	.	.	.
.	.	got	.	.	.	.	.
.	.	a	.	.	.	.	.
.	.	lot	.	.	.	.	.
.	.	of	.	.	.	.	.
=75	=75	=75	=75	=75	=75	=75	=75
*>Letter>C	*>Letter>C	*>Letter>C	*>Letter>C	*>Letter>C	*>Letter>C	*>Letter>C	*>Letter>C
*>Label>Chorus	*>Label>Chorus	*>Label>Chorus	*>Label>Chorus	*>Label>Chorus	*>Label>Chorus	*>Label>Chorus	*>Label>Chorus
1I	D:maj	good	.	140.345	newline	voice	1D 1f# 1a
.	.	things	.	.	.	.	.
.	.	hap-	.	.	.	.	.
.	.	-pen-	.	.	.	.	.
.	.	-ning	.	.	.	.	.
.	.	up	.	.	.	.	.
=76	=76	=76	=76	=76	=76	=76	=76
2IV	G:maj	_	.	142.211	.	voice	2.G 2.b 2.dd
.	.	a-	.	.	.	.	.
.	.	-head	C	.	.	.	.
2V	A:maj	.	.	143.144	.	voice	4A 4cc# 4ee
.	.	.	.	.	.	.	.
.	.	The	.	.	.	.	.
=77	=77	=77	=77	=77	=77	=77	=77
1I	D:maj	past	.	144.077	.	voice	1D 1f# 1a
.	.	is	.	.	.	.	.
.	.	gone	.	.	.	.	.
.	.	it's	.	.	.	.	.
.	.	all	.	.	.	.	.
=78	=78	=78	=78	=78	=78	=78	=78
2IV	G:maj	_	.	145.943	.	voice	2.G 2.b 2.dd
.	.	been	.	.	.	.	.
.	.	said	C	.	.	.	.
2V	A:maj	.	.	146.876	.	voice	4A 4cc# 4ee
.	.	.	.	.	.	.	.
.	.	So	.	.	.	.	.
=79	=79	=79	=79	=79	=79	=79	=79
1I	D:maj	here's	.	147.809	newline	voice	1D 1f# 1a
.	.	to	.	.	.	.	.
.	.	what	.	.	.	.	.
.	.	the	.	.	.	.	.
.	.	fu-	.	.	.	.	.
=80	=80	=80	=80	=80	=80	=80	=80
2IV	G:maj	_	.	149.649	.	voice	2.G 2.b 2.dd
.	.	-ture	.	.	.	.	.
.	.	brings	F	.	.	.	.
2V	A:maj	.	.	150.569	.	voice	4A 4cc# 4ee
.	.	.	.	.	.	.	.
.	.	I	.	.	.	.	.
=81	=81	=81	=81	=81	=81	=81	=81
1I	D:maj	know	.	151.489	.	voice	1D 1f# 1a
.	.	to-	.	.	.	.	.
.	.	-mor-	.	.	.	.	.
.	.	-row	.	.	.	.	.
.	.	you'll	.	.	.	.	.
=82	=82	=82	=82	=82	=82	=82	=82
2IV	G:maj	_	.	153.33	.	voice	3...G 3...b 3...dd
.	.	find	.	.	.	.	.
2V	A:maj	.	.	154.25	.	voice	4.A 4.cc# 4.ee
.	.	bet-	.	.	.	.	.
.	.	-ter	.	.	.	.	.
=83	=83	=83	=83	=83	=83	=83	=83
*>Letter>A	*>Letter>A	*>Letter>A	*>Letter>A	*>Letter>A	*>Letter>A	*>Letter>A	*>Letter>A
*>Label>Outro	*>Label>Outro	*>Label>Outro	*>Label>Outro	*>Label>Outro	*>Label>Outro	*>Label>Outro	*>Label>Outro
1I	D:maj	things	F	155.17	newline	guitar	1D 1f# 1a
.	.	.	.	.	.	.	.
=84	=84	=84	=84	=84	=84	=84	=84
1Ib	D:maj/3	.	.	157.034	.	guitar	1d 1F# 1a
.	.	.	.	.	.	.	.
.	.	I	.	.	.	.	.
=85	=85	=85	=85	=85	=85	=85	=85
1IV	G:maj	know	.	158.898	.	guitar	1G 1b 1dd
.	.	to-	.	.	.	.	.
.	.	-mor-	.	.	.	.	.
.	.	-row	.	.	.	.	.
.	.	you'll	.	.	.	.	.
=86	=86	=86	=86	=86	=86	=86	=86
1V	A:maj	_	.	160.762	.	guitar	1A 1cc# 1ee
.	.	find	.	.	.	.	.
.	.	bet-	.	.	.	.	.
.	.	-ter	.	.	.	.	.
.	.	things	F	.	.	.	.
=87	=87	=87	=87	=87	=87	=87	=87
1I	D:maj	_	.	162.626	newline	guitar	1D 1f# 1a
.	.	.	.	.	.	.	.
=88	=88	=88	=88	=88	=88	=88	=88
1Ib	D:maj/3	.	.	164.5	.	guitar	1d 1F# 1a
.	.	.	.	.	.	.	.
.	.	.	.	.	.	.	.
.	.	I	.	.	.	.	.
=89	=89	=89	=89	=89	=89	=89	=89
1IV	G:maj	hope	.	166.374	.	guitar	1G 1b 1dd
.	.	to-	.	.	.	.	.
.	.	-mor-	.	.	.	.	.
.	.	-row	.	.	.	.	.
.	.	you'll	.	.	.	.	.
=90	=90	=90	=90	=90	=90	=90	=90
1V	A:maj	_	.	168.248	.	guitar	1A 1cc# 1ee
.	.	find	.	.	.	.	.
.	.	bet-	.	.	.	.	.
.	.	-ter	.	.	.	.	.
=91	=91	=91	=91	=91	=91	=91	=91
1I	D:maj	_	.	170.121	newline	guitar	1D 1f# 1a
.	.	things	F	.	.	.	.
.	.	.	.	.	.	.	.
=92	=92	=92	=92	=92	=92	=92	=92
1Ib	D:maj/3	.	.	171.968	.	guitar	1d 1F# 1a
.	.	.	.	.	.	.	.
.	.	.	.	.	.	.	.
.	.	I	.	.	.	.	.
=93	=93	=93	=93	=93	=93	=93	=93
1IV	G:maj	know	.	173.814	.	guitar	1G 1b 1dd
.	.	to-	.	.	.	.	.
.	.	-mor-	.	.	.	.	.
.	.	-row	.	.	.	.	.
.	.	you'll	.	.	.	.	.
=94	=94	=94	=94	=94	=94	=94	=94
1V	A:maj	_	.	175.66	.	guitar	1A 1cc# 1ee
.	.	find	.	.	.	.	.
.	.	bet-	.	.	.	.	.
.	.	-ter	.	.	.	.	.
.	.	things	F	.	.	.	.
=95	=95	=95	=95	=95	=95	=95	=95
1V	A:maj	things	F	177.506	.	guitar	1A 1cc# 1ee
.	.	.	.	.	.	.	.
=96	=96	=96	=96	=96	=96	=96	=96
1V	A:maj	.	.	179.352	newline	guitar	1A 1cc# 1ee
1r;	N	.	.	184.181	.	r	1r;
1r;	N	.	.	186.096	.	r	1r;
*-	*-	*-	*-	*-	*-	*-	*-
!!!BillboardChartDate: 1981/12/05
!!!BillboardPeak: 92
!!!BillboardWeeksOnChart: 8
!!!COC: The Kinks
!!!ENC: Nathaniel Condit-Schultz
!!!EST: Awating manual error checking and editing.
!!!OTL: Better Things
!!!RDF**harte: Chris Harte's syntax, used by MIREX
!!!RDF**harmony: **recip + pitch class of root + harmonic quality
!!!RDF**leadinstrument: original McGill primary instrumentation annotation
!!!RDF**phrase: newline = linebreak in original McGill transcription
!!!RDF**timestamp: McGill audio timestamp in seconds
!!!RDT: 2017/01/12/
!!!SampleActualRank: 97
!!!SampleID#: 0443
!!!SampleTargetRank: 99
!!!MBID: c67b911b-6811-409b-910c-0b0f2905e62d
